components/Speakers/pattern2.svg

<svg fill="none" height="358" viewBox="0 0 117 358" width="117" xmlns="http://www.w3.org/2000/svg"><path clip-rule="evenodd" d="m7.1881 12.6087c-.04096.5012-.09902 1.1973-.12903 1.547-.06975.8148.17332 2.8156.47216 3.8846.64467 2.3063 2.16853 3.9953 4.49797 4.9851.679.2886 1.6034.5773 2.054.6416.6597.0939.8436.1777.9431.4292.1815.4587.6327.7945 1.0147.7552.3106-.032.3631.0295.7359.8619.2374.5302.3428.971.2581 1.079-.3889.4955-.6171 2.2714-.4814 3.7452.1492 1.618.6034 2.9809 1.5149 4.5451.2594.4452.4639.8799.4542.966-.0096.0861.1233.5121.2953.9465.1719.4344.5073 1.3439.7452 2.021.496 1.4116 1.1532 2.3502 2.1091 3.0121.9655.6686 1.9756 1.8425 2.3785 2.7639.3242.7415.4149 1.3526.7136 4.8106.1407 1.6276.3441 2.0659 1.3671 2.9451 1.9569 1.6815 2.6808 3.0289 2.6643 4.9586-.0053.6154.0586 1.7677.142 2.5608.1203 1.1433.0795 1.7497-.1971 2.9281l-.3487 1.4862 1.017.753c.5596.4141 1.6176 1.0774 2.3514 1.474 1.0613.5736 1.3491.6743 1.407.4923.0599-.1882.0823-.1772.1265.0621.0608.3297.3212.4983 2.412 1.563 1.5863.8076 3.7537 2.3913 4.8058 3.5116.9679 1.0304 1.7076 2.7125 2.7565 6.2678.2846.9643.8385 2.7182 1.2309 3.8973l.7136 2.1441-.8262.9908c-2.2552 2.7047-4.8754 4.0182-7.9922 4.0063-.6113-.0023-2.3813-.1972-2.8832-.3173-6.2895-1.5055-14.2642-2.1768-20.7443-1.7463-2.1507.143-5.01336.7595-5.84934 1.2599-.31809.1904-.37523.3249-.41565.9798-.12297 1.9868-1.0632 4.76-2.71341 8.0022-.96717 1.9004-1.21984 2.5019-.85562 2.0387.19936-.2538 2.00476-.9818 3.21318-1.2958 1.80527-.4692 5.13574-.7087 7.76164-.5583 2.2884.1311 5.562.5045 5.7366.6543.0522.0447.2315.0764.3983.0703.2801-.0102 1.5809.2805 3.9023.8719 1.1136.2838 3.5784 1.1338 3.774 1.3018.5892.505 5.657 2.845 8.0532 3.718 2.5895.944 6.1135 1.867 7.7284 2.025.2447.024.9515.093 1.5708.154 3.4355.34 6.7945.086 10.0203-.756 1.8645-.487 3.8365-1.318 5.8703-2.474l1.0942-.622 1.375.234c2.6173.447 5.0287.408 7.5047-.121 1.22-.261 3.7743-1.202 5.085-1.873.6712-.344 1.4873-.757 1.8133-.918s.6277-.3376.6703-.3919c.0428-.0544.726-.5387 1.5185-1.0764.8228-.5583 1.534-1.1396 1.6582-1.3551.1195-.2075.2355-.3218.2576-.2541.0466.1424.8177-.4802 2.2913-1.8496.8765-.8146 2.256-2.5273 8.9186-11.0733l7.8815-10.1098.974-1.9925c2.42-4.9512 3.533-9.1167 3.581-13.3971.03-2.7563-.452-5.4994-1.335-7.5965-.38-.9023-.276-.9642.653-.3877.839.5213 1.852.7195 3.208.6275 1.57-.1065 2.834-.4974 4.233-1.3088 1.468-.8516 2.25-1.5654 3.295-3.0052.778-1.0734.9-1.3249 1.131-2.3449.679-2.9909-.661-6.6818-2.978-8.2074-1.193-.7851-1.866-.9575-3.394-.8687-1.671.0972-3.584 1.4682-3.834 2.7484-.402 2.0654 1.993 3.6509 3.619 2.3947.687-.5309 1.093-.4423 1.627.3548.427.6372.649 2.0995.402 2.6457-.084.1853-.455.6626-.826 1.0606-1.086 1.1687-2.973 1.9415-4.125 1.6901-.364-.0795-.583-.2529-1.209-.9552-1.1-1.2345-1.934-3.2102-2.117-5.0147-.157-1.5498-.1-2.2911.443-5.7924.692-4.4683.788-5.551.728-8.1737-.138-6.0293-1.267-10.735-3.633-15.1522-2.3552-4.39526-5.6348-7.63809-9.6619-9.55348-1.8481-.87898-4.8603-1.756295-6.1048-1.778047-.2708-.004589-.8322-.036777-1.2478-.0713379-1.6647-.138631-4.5174.2470559-6.7891.9174849-2.2942.67712-5.5248 2.55279-7.9453 4.61282-2.9849 2.54052-4.4539 4.45246-5.6439 7.34636-.9592 2.3324-1.2961 4.1694-1.2161 6.6298.0676 2.0799.2633 3.065 1.2342 6.2114.1581.5126.1515.5541-.0473.2932-.5299-.696-2.1138-2.4826-2.5316-2.8557-.429-.3829-.4777-.3864-1.033-.0753-.3204.1796-.6888.3672-.8185.4169-.1297.0496-.4283.1895-.6637.3107-.2353.1214-1.1548.3014-2.0434.4001-.8885.0987-2.1555.2616-2.8155.3619-1.6461.25-2.1801.0649-4.2121-1.4599-1.9213-1.4416-1.6838-1.3947-5.1097-1.0087-3.1614.3563-3.5979.2314-6.0794-1.74l-1.8503-1.4701-1.4682-.2196c-1.6827-.2516-4.6043-.8927-5.4076-1.1868-1.768-.6471-4.7398-.2464-6.3924.862-.3832.2572-.5851.265-1.2651.0498-.7775-.2463-.8141-.2738-.9455-.7124-.116-.3871-.2093-.4828-.6174-.6338-.4413-.1632-.5126-.2606-.8701-1.1886-.3763-.9766-1.9204-3.3228-2.5303-3.8447-.6105-.5225-2.8838-1.4757-3.7345-1.566-1.3336-.1414-2.8137-.0215-4.18265.3388-1.08461.2854-2.12661.6577-2.19578.7843-.01198.0219-.05521.4499-.09617.951zm64.8209-2.72436c.4449-.36923.9348-.78282 1.0886-.91913.6148-.5449 1.0296-.84119 2.0469-1.46242 5.0123-3.06028 9.7699-3.42438 14.8605-1.13723 1.203.54032 1.466.72243 3.2038 2.21744 1.6977 1.4603 1.9865 1.7631 2.7936 2.9295 2.1794 3.1501 3.5095 6.5711 4.1126 10.5776.583 3.8695.499 7.0043-.3254 12.201-.2697 1.6994-.5034 3.4295-.5195 3.8448-.0635 1.6424.0803 3.662.331 4.6495.1452.5712.3047 1.2002.3548 1.3978.0811.319-.1029.1937-1.6408-1.1186-2.8255-2.4111-6.5095-4.5088-9.8002-5.5806-2.5971-.846-6.4068-1.5977-10.2946-2.0316-.9634-.1076-1.7806-.2201-1.8157-.2502-.035-.0301.3463-.1638.8475-.2972 1.8744-.4988 3.2434-1.468 4.7024-3.3293 2.0167-2.5726 2.4492-5.4037 1.2427-8.1355-1.1178-2.5315-3.2268-3.9255-5.8835-3.889-1.2863.0177-2.0643.3423-2.6016 1.0856-.3505.4849-.4721.8129-.4993 1.3472-.0426.8348.1187 1.2128.792 1.8562.5922.5659.9324.6572 2.1619.58 1.1271-.0705 1.6677.2946 1.9578 1.3228.2973 1.0541.0557 1.828-.9298 2.9783-1.3076 1.526-2.6433 1.9516-4.3453 1.3847-1.1382-.3791-2.8904-1.8342-3.8815-3.2234-.7808-1.0945-2.0226-3.8411-2.178-4.8173-.3059-1.9227-.3642-2.5458-.3214-3.4391.0257-.5364.07-1.005.0983-1.041.0283-.0361.0897-.3848.1362-.7749.0719-.6009.7764-2.4285 1.4097-3.6567.3078-.5968 2.0617-2.5765 2.8963-3.26926z" fill="#e2def0" fill-rule="evenodd"/><path d="m15.1991 93.3818c-7.85949.3155-12.5752 1.1829-12.5752 3.2332v260.469" stroke="#e2def0" stroke-width="5"/></svg>

<svg width="117" height="358" viewBox="0 0 117 358" fill="none" xmlns="http://www.w3.org/2000/svg">
<path fill-rule="evenodd" clip-rule="evenodd" d="M7.1881 12.6087C7.14714 13.1099 7.08908 13.806 7.05907 14.1557C6.98932 14.9705 7.23239 16.9713 7.53123 18.0403C8.1759 20.3466 9.69976 22.0356 12.0292 23.0254C12.7082 23.314 13.6326 23.6027 14.0832 23.667C14.7429 23.7609 14.9268 23.8447 15.0263 24.0962C15.2078 24.5549 15.659 24.8907 16.041 24.8514C16.3516 24.8194 16.4041 24.8809 16.7769 25.7133C17.0143 26.2435 17.1197 26.6843 17.035 26.7923C16.6461 27.2878 16.4179 29.0637 16.5536 30.5375C16.7028 32.1555 17.157 33.5184 18.0685 35.0826C18.3279 35.5278 18.5324 35.9625 18.5227 36.0486C18.5131 36.1347 18.646 36.5607 18.818 36.9951C18.9899 37.4295 19.3253 38.339 19.5632 39.0161C20.0592 40.4277 20.7164 41.3663 21.6723 42.0282C22.6378 42.6968 23.6479 43.8707 24.0508 44.7921C24.375 45.5336 24.4657 46.1447 24.7644 49.6027C24.9051 51.2303 25.1085 51.6686 26.1315 52.5478C28.0884 54.2293 28.8123 55.5767 28.7958 57.5064C28.7905 58.1218 28.8544 59.2741 28.9378 60.0672C29.0581 61.2105 29.0173 61.8169 28.7407 62.9953L28.392 64.4815L29.409 65.2345C29.9686 65.6486 31.0266 66.3119 31.7604 66.7085C32.8217 67.2821 33.1095 67.3828 33.1674 67.2008C33.2273 67.0126 33.2497 67.0236 33.2939 67.2629C33.3547 67.5926 33.6151 67.7612 35.7059 68.8259C37.2922 69.6335 39.4596 71.2172 40.5117 72.3375C41.4796 73.3679 42.2193 75.05 43.2682 78.6053C43.5528 79.5696 44.1067 81.3235 44.4991 82.5026L45.2127 84.6467L44.3865 85.6375C42.1313 88.3422 39.5111 89.6557 36.3943 89.6438C35.783 89.6415 34.013 89.4466 33.5111 89.3265C27.2216 87.821 19.2469 87.1497 12.7668 87.5802C10.6161 87.7232 7.75344 88.3397 6.91746 88.8401C6.59937 89.0305 6.54223 89.165 6.50181 89.8199C6.37884 91.8067 5.43861 94.5799 3.7884 97.8221C2.82123 99.7225 2.56856 100.324 2.93278 99.8608C3.13214 99.607 4.93754 98.879 6.14596 98.565C7.95123 98.0958 11.2817 97.8563 13.9076 98.0067C16.196 98.1378 19.4696 98.5112 19.6442 98.661C19.6964 98.7057 19.8757 98.7374 20.0425 98.7313C20.3226 98.7211 21.6234 99.0118 23.9448 99.6032C25.0584 99.887 27.5232 100.737 27.7188 100.905C28.308 101.41 33.3758 103.75 35.772 104.623C38.3615 105.567 41.8855 106.49 43.5004 106.648C43.7451 106.672 44.4519 106.741 45.0712 106.802C48.5067 107.142 51.8657 106.888 55.0915 106.046C56.956 105.559 58.928 104.728 60.9618 103.572L62.056 102.95L63.431 103.184C66.0483 103.631 68.4597 103.592 70.9357 103.063C72.1557 102.802 74.71 101.861 76.0207 101.19C76.6919 100.846 77.508 100.433 77.834 100.272C78.16 100.111 78.4617 99.9344 78.5043 99.8801C78.5471 99.8257 79.2303 99.3414 80.0228 98.8037C80.8456 98.2454 81.5568 97.6641 81.681 97.4486C81.8005 97.2411 81.9165 97.1268 81.9386 97.1945C81.9852 97.3369 82.7563 96.7143 84.2299 95.3449C85.1064 94.5303 86.4859 92.8176 93.1485 84.2716L101.03 74.1618L102.004 72.1693C104.424 67.2181 105.537 63.0526 105.585 58.7722C105.615 56.0159 105.133 53.2728 104.25 51.1757C103.87 50.2734 103.974 50.2115 104.903 50.788C105.742 51.3093 106.755 51.5075 108.111 51.4155C109.681 51.309 110.945 50.9181 112.344 50.1067C113.812 49.2551 114.594 48.5413 115.639 47.1015C116.417 46.0281 116.539 45.7766 116.77 44.7566C117.449 41.7657 116.109 38.0748 113.792 36.5492C112.599 35.7641 111.926 35.5917 110.398 35.6805C108.727 35.7777 106.814 37.1487 106.564 38.4289C106.162 40.4943 108.557 42.0798 110.183 40.8236C110.87 40.2927 111.276 40.3813 111.81 41.1784C112.237 41.8156 112.459 43.2779 112.212 43.8241C112.128 44.0094 111.757 44.4867 111.386 44.8847C110.3 46.0534 108.413 46.8262 107.261 46.5748C106.897 46.4953 106.678 46.3219 106.052 45.6196C104.952 44.3851 104.118 42.4094 103.935 40.6049C103.778 39.0551 103.835 38.3138 104.378 34.8125C105.07 30.3442 105.166 29.2615 105.106 26.6388C104.968 20.6095 103.839 15.9038 101.473 11.4866C99.1178 7.09134 95.8382 3.84851 91.8111 1.93312C89.963 1.05414 86.9508 0.176825 85.7063 0.155073C85.4355 0.150484 84.8741 0.118296 84.4585 0.0837351C82.7938 -0.0548959 79.9411 0.330791 77.6694 1.00122C75.3752 1.67834 72.1446 3.55401 69.7241 5.61404C66.7392 8.15456 65.2702 10.0665 64.0802 12.9604C63.121 15.2928 62.7841 17.1298 62.8641 19.5902C62.9317 21.6701 63.1274 22.6552 64.0983 25.8016C64.2564 26.3142 64.2498 26.3557 64.051 26.0948C63.5211 25.3988 61.9372 23.6122 61.5194 23.2391C61.0904 22.8562 61.0417 22.8527 60.4864 23.1638C60.166 23.3434 59.7976 23.531 59.6679 23.5807C59.5382 23.6303 59.2396 23.7702 59.0042 23.8914C58.7689 24.0128 57.8494 24.1928 56.9608 24.2915C56.0723 24.3902 54.8053 24.5531 54.1453 24.6534C52.4992 24.9034 51.9652 24.7183 49.9332 23.1935C48.0119 21.7519 48.2494 21.7988 44.8235 22.1848C41.6621 22.5411 41.2256 22.4162 38.7441 20.4448L36.8938 18.9747L35.4256 18.7551C33.7429 18.5035 30.8213 17.8624 30.018 17.5683C28.25 16.9212 25.2782 17.3219 23.6256 18.4303C23.2424 18.6875 23.0405 18.6953 22.3605 18.4801C21.583 18.2338 21.5464 18.2063 21.415 17.7677C21.299 17.3806 21.2057 17.2849 20.7976 17.1339C20.3563 16.9707 20.285 16.8733 19.9275 15.9453C19.5512 14.9687 18.0071 12.6225 17.3972 12.1006C16.7867 11.5781 14.5134 10.6249 13.6627 10.5346C12.3291 10.3932 10.849 10.5131 9.48005 10.8734C8.39544 11.1588 7.35344 11.5311 7.28427 11.6577C7.27229 11.6796 7.22906 12.1076 7.1881 12.6087ZM72.009 9.88434C72.4539 9.51511 72.9438 9.10152 73.0976 8.96521C73.7124 8.42031 74.1272 8.12402 75.1445 7.50279C80.1568 4.44251 84.9144 4.07841 90.005 6.36556C91.208 6.90588 91.471 7.08799 93.2088 8.583C94.9065 10.0433 95.1953 10.3461 96.0024 11.5125C98.1818 14.6626 99.5119 18.0836 100.115 22.0901C100.698 25.9596 100.614 29.0944 99.7896 34.2911C99.5199 35.9905 99.2862 37.7206 99.2701 38.1359C99.2066 39.7783 99.3504 41.7979 99.6011 42.7854C99.7463 43.3566 99.9058 43.9856 99.9559 44.1832C100.037 44.5022 99.853 44.3769 98.3151 43.0646C95.4896 40.6535 91.8056 38.5558 88.5149 37.484C85.9178 36.638 82.1081 35.8863 78.2203 35.4524C77.2569 35.3448 76.4397 35.2323 76.4046 35.2022C76.3696 35.1721 76.7509 35.0384 77.2521 34.905C79.1265 34.4062 80.4955 33.437 81.9545 31.5757C83.9712 29.0031 84.4037 26.172 83.1972 23.4402C82.0794 20.9087 79.9704 19.5147 77.3137 19.5512C76.0274 19.5689 75.2494 19.8935 74.7121 20.6368C74.3616 21.1217 74.24 21.4497 74.2128 21.984C74.1702 22.8188 74.3315 23.1968 75.0048 23.8402C75.597 24.4061 75.9372 24.4974 77.1667 24.4202C78.2938 24.3497 78.8344 24.7148 79.1245 25.743C79.4218 26.7971 79.1802 27.571 78.1947 28.7213C76.8871 30.2473 75.5514 30.6729 73.8494 30.106C72.7112 29.7269 70.959 28.2718 69.9679 26.8826C69.1871 25.7881 67.9453 23.0415 67.7899 22.0653C67.484 20.1426 67.4257 19.5195 67.4685 18.6262C67.4942 18.0898 67.5385 17.6212 67.5668 17.5852C67.5951 17.5491 67.6565 17.2004 67.703 16.8103C67.7749 16.2094 68.4794 14.3818 69.1127 13.1536C69.4205 12.5568 71.1744 10.5771 72.009 9.88434Z" fill="#E2DEF0"/>
<path d="M15.1991 93.3818C7.33961 93.6973 2.6239 94.5647 2.6239 96.615C2.6239 98.2553 2.6239 271.996 2.6239 357.084" stroke="#E2DEF0" stroke-width="5"/>
</svg>
